!!!!SEGMENT: pl-sa--l-1643--043-003_anonim--adoro-te-supplex-latens-deitas-tertia-pars.krn
!!!cenid: 16xx:1400
!!!COM: Anonim
!!!COM-rismid: pe30004985
!!!CDT:
!!!CNT:
!!!OPR: Adoro te supplex, latens deitas
!!!OTL: Tertia Pars
!!!OMV: 003
!!!PDT:
!!!AGN: Sacred
!!!SMS-siglum: PL-SA
!!!SMS-shelfmark: L 1643
!!!SMS-shelfwork: 043-003 M
!!!SMS-variant:
!!!SMS-altvar:
!!!NIFC-rismid: 1001063146
!!!URL-scan: http://repozytorium.nifc.pl/skany/pl-sa-nut--l1643
!!!ONB-nifc: UWAGA: 8 ksiąg. Primi chori: 1mus Cantus (72-74), C 2dus (72-74), C 3tius (70-72), Bassus (67-69); Secondi chori: Primus Cantus (68-70), C 2dus (71-73), Altus (69-71), Bassus (69-71). UWAGA: metrum 2/2 i 3/2. Pliki dla osobnych 4 części. Nie dodawać pustych linii, chyba że w rękopisie pojawiają się dodatkowe oznaczenia dotyczące pełnej obsady (a 4, a 8 itp)
**kern	**text	**text	**kern	**text	**text	**kern	**text	**text	**kern	**text	**text	**kern	**text	**text	**kern	**text	**text	**kern	**text	**text	**kern	**text	**text
*part8	*part8	*part8	*part7	*part7	*part7	*part6	*part6	*part6	*part5	*part5	*part5	*part4	*part4	*part4	*part3	*part3	*part3	*part2	*part2	*part2	*part1	*part1	*part1
*staff8	*staff8	*staff8	*staff7	*staff7	*staff7	*staff6	*staff6	*staff6	*staff5	*staff5	*staff5	*staff4	*staff4	*staff4	*staff3	*staff3	*staff3	*staff2	*staff2	*staff2	*staff1	*staff1	*staff1
*Iempty	*	*	*Iempty	*	*	*Iempty	*	*	*Iempty	*	*	*Iempty	*	*	*Iempty	*	*	*Iempty	*	*	*Iempty	*	*
*I"Baſsus 2di Chori	*	*	*I"Altus secundi Chori.	*	*	*I"Cantus 2dus Secundi Chori.	*	*	*I"Primus Cantus 2di Chori	*	*	*I"Bassus Primi Chori.	*	*	*I"Cantus 3tius Primi Chori	*	*	*I"Cantus 2dus Primi Chori.	*	*	*I"1m(us) Cantus Primi Chori	*	*
*I'Coro 2 B	*	*	*I'Coro 2 A	*	*	*I'Coro 2 C 2	*	*	*I'Coro 2 C 1	*	*	*I'Coro 1 B	*	*	*I'Coro 1 C 3	*	*	*I'Coro 1 C 2	*	*	*I'Coro 1 C 1	*	*
*clefC3	*	*	*clefC2	*	*	*clefC1	*	*	*clefG2	*	*	*clefC3	*	*	*clefC2	*	*	*clefC1	*	*	*clefG2	*	*
*k[]	*	*	*k[]	*	*	*k[]	*	*	*k[]	*	*	*k[]	*	*	*k[]	*	*	*k[]	*	*	*k[]	*	*
*d:	*	*	*d:	*	*	*d:	*	*	*d:	*	*	*d:	*	*	*d:	*	*	*d:	*	*	*d:	*	*
*M2/2	*	*	*M2/2	*	*	*M2/2	*	*	*M2/2	*	*	*M2/2	*	*	*M2/2	*	*	*M2/2	*	*	*M2/2	*	*
*met(c|)	*	*	*met(c|)	*	*	*met(c|)	*	*	*met(c|)	*	*	*met(c|)	*	*	*met(c|)	*	*	*met(c|)	*	*	*met(c|)	*	*
=1-	=1-	=1-	=1-	=1-	=1-	=1-	=1-	=1-	=1-	=1-	=1-	=1-	=1-	=1-	=1-	=1-	=1-	=1-	=1-	=1-	=1-	=1-	=1-
!	!	!	!LO:TX:t=Tertia Pars	!	!	!	!	!	!	!	!	!LO:TX:t=Tertia\nPars.	!	!	!	!	!	!LO:TX:t=Tertia\nPars	!	!	!LO:TX:t=Tertia\nPars	!	!
00r	.	.	00r	.	.	00r	.	.	00r	.	.	1f	In	Pi-	1a	In	Pi-	1cc	In	Pi-	1ff	In	Pi-
=2-	=2-	=2-	=2-	=2-	=2-	=2-	=2-	=2-	=2-	=2-	=2-	=2-	=2-	=2-	=2-	=2-	=2-	=2-	=2-	=2-	=2-	=2-	=2-
.	.	.	.	.	.	.	.	.	.	.	.	2c/	cru-	-e	2g\	cru-	-e	2cc\	cru-	-e	2ee\	cru-	-e
.	.	.	.	.	.	.	.	.	.	.	.	1c\	-ce	Pe-	1g\	-ce	Pe-	1cc\	-ce	Pe-	1ee\	-ce	Pe-
=3-	=3-	=3-	=3-	=3-	=3-	=3-	=3-	=3-	=3-	=3-	=3-	=3-	=3-	=3-	=3-	=3-	=3-	=3-	=3-	=3-	=3-	=3-	=3-
.	.	.	.	.	.	.	.	.	.	.	.	.	.	.	.	.	.	.	.	.	.	.	.
.	.	.	.	.	.	.	.	.	.	.	.	2d\	la-	-li-	2f\	la-	-li-	4a\	la-	-li-	2dd\	la-	-li-
.	.	.	.	.	.	.	.	.	.	.	.	.	.	.	.	.	.	4b\	.	.	.	.	.
=4-	=4-	=4-	=4-	=4-	=4-	=4-	=4-	=4-	=4-	=4-	=4-	=4-	=4-	=4-	=4-	=4-	=4-	=4-	=4-	=4-	=4-	=4-	=4-
.	.	.	.	.	.	.	.	.	.	.	.	1c	-te-	-ca-	1g	-te-	-ca-	1cc	-te-	-ca-	1ee	-te-	-ca-
=5-	=5-	=5-	=5-	=5-	=5-	=5-	=5-	=5-	=5-	=5-	=5-	=5-	=5-	=5-	=5-	=5-	=5-	=5-	=5-	=5-	=5-	=5-	=5-
2r	.	.	2r	.	.	2r	.	.	2r	.	.	1c	-bat	-ne	1g	-bat	-ne	1cc	-bat	-ne	1ee	-bat	-ne
1c\	So-	JE-	1g\	So-	JE-	2.cc\	So-	JE-	1ee\	So-	JE-	.	.	.	.	.	.	.	.	.	.	.	.
=6-	=6-	=6-	=6-	=6-	=6-	=6-	=6-	=6-	=6-	=6-	=6-	=6-	=6-	=6-	=6-	=6-	=6-	=6-	=6-	=6-	=6-	=6-	=6-
.	.	.	.	.	.	.	.	.	.	.	.	0r	.	.	0r	.	.	0r	.	.	0r	.	.
.	.	.	.	.	.	4b\	-la	-SV	.	.	.	.	.	.	.	.	.	.	.	.	.	.	.
2d\	-la	-SV	4f\	-la	-SV	4a\	.	.	2ff\	-la	-SV	.	.	.	.	.	.	.	.	.	.	.	.
.	.	.	4g\	.	.	2dd\	De-	Do-	.	.	.	.	.	.	.	.	.	.	.	.	.	.	.
=7-	=7-	=7-	=7-	=7-	=7-	=7-	=7-	=7-	=7-	=7-	=7-	=7-	=7-	=7-	=7-	=7-	=7-	=7-	=7-	=7-	=7-	=7-	=7-
2.A/	De-	Do-	2.a\	De-	Do-	.	.	.	2.ee\	De-	Do-	.	.	.	.	.	.	.	.	.	.	.	.
!	!	!	!	!	!	!LO:SIC:v:s=8cc#\	!	!	!	!	!	!	!	!	!	!	!	!	!	!	!	!	!
.	.	.	.	.	.	8cc\L	.	-mi-	.	.	.	.	.	.	.	.	.	.	.	.	.	.	.
.	.	.	.	.	.	8b\J	.	.	.	.	.	.	.	.	.	.	.	.	.	.	.	.	.
!	!	!	!	!	!	!LO:TX:t=P:problem:# below	!	!	!	!	!	!	!	!	!	!	!	!	!	!	!	!	!
.	.	.	.	.	.	2cc#X\	-i-	-ne.	.	.	.	.	.	.	.	.	.	.	.	.	.	.	.
4A/	-i-	-mi-	4a\	-i-	-mi-	.	.	.	4ee\	-i-	-mi-	.	.	.	.	.	.	.	.	.	.	.	.
=8-	=8-	=8-	=8-	=8-	=8-	=8-	=8-	=8-	=8-	=8-	=8-	=8-	=8-	=8-	=8-	=8-	=8-	=8-	=8-	=8-	=8-	=8-	=8-
1d	-tas	-ne	1a	-tas	-ne	1dd	-tas	.	1dd	-tas.	-ne.	2r	.	.	2r	.	.	2r	.	.	2r	.	.
.	.	.	.	.	.	.	.	.	.	.	.	1d\	So-	JE-	1a\	So-	JE-	1dd\	So-	JE-	4dd\	so-	JE-
.	.	.	.	.	.	.	.	.	.	.	.	.	.	.	.	.	.	.	.	.	4ee\	.	.
=9-	=9-	=9-	=9-	=9-	=9-	=9-	=9-	=9-	=9-	=9-	=9-	=9-	=9-	=9-	=9-	=9-	=9-	=9-	=9-	=9-	=9-	=9-	=9-
0r	.	.	0r	.	.	0r	.	.	0r	.	.	.	.	.	.	.	.	.	.	.	4ff\	.	.
.	.	.	.	.	.	.	.	.	.	.	.	.	.	.	.	.	.	.	.	.	4dd\	.	.
.	.	.	.	.	.	.	.	.	.	.	.	2d\	-la	-SV	4f\	-la	-SV	2dd\	-la	-SV	4ee\	.	-SV
.	.	.	.	.	.	.	.	.	.	.	.	.	.	.	4g\	.	.	.	.	.	4ff\	-la	.
=10-	=10-	=10-	=10-	=10-	=10-	=10-	=10-	=10-	=10-	=10-	=10-	=10-	=10-	=10-	=10-	=10-	=10-	=10-	=10-	=10-	=10-	=10-	=10-
!	!	!	!	!	!	!	!	!	!	!	!	!	!	!	!	!	!	!LO:TX:t=P:problem:# below	!	!	!	!	!
.	.	.	.	.	.	.	.	.	.	.	.	2.A/	De-	Do-	2.a\	De-	Do-	2.cc#X\	De-	Do-	2.ee\	De-	Do-
.	.	.	.	.	.	.	.	.	.	.	.	4A/	-it-	-mi-	4a\	-i-	-mi-	4cc#\	-i-	-mi-	4ee\	-i-	-mi-
=11-	=11-	=11-	=11-	=11-	=11-	=11-	=11-	=11-	=11-	=11-	=11-	=11-	=11-	=11-	=11-	=11-	=11-	=11-	=11-	=11-	=11-	=11-	=11-
2r	.	.	2r	.	.	2r	.	.	2r	.	.	1d	-as	-ne	1a	-tas	-ne	1dd	-tas	-ne.	1dd	-tas.	-ne
2d\	Sed	Me	2f\	Sed	Me	2a\	Sed	Me	2dd\	Sed	Me	.	.	.	.	.	.	.	.	.	.	.	.
=12-	=12-	=12-	=12-	=12-	=12-	=12-	=12-	=12-	=12-	=12-	=12-	=12-	=12-	=12-	=12-	=12-	=12-	=12-	=12-	=12-	=12-	=12-	=12-
1d	hic	im-	1f	hic	im-	2.a\	hic	im-	1dd	hic	im-	00r	.	.	00r	.	.	00r	.	.	00r	.	.
.	.	.	.	.	.	4b\	.	mun-	.	.	.	.	.	.	.	.	.	.	.	.	.	.	.
=13-	=13-	=13-	=13-	=13-	=13-	=13-	=13-	=13-	=13-	=13-	=13-	=13-	=13-	=13-	=13-	=13-	=13-	=13-	=13-	=13-	=13-	=13-	=13-
2c/	la-	-mun-	2g\	la-	-mun-	2ccny\	la-	.	2ee\	la-	-mun-	.	.	.	.	.	.	.	.	.	.	.	.
2A/	-tet	-dum	2a\	-tet	-dum	2cc\	-tet	-dum	2ff\	-tet	-dum	.	.	.	.	.	.	.	.	.	.	.	.
=14-	=14-	=14-	=14-	=14-	=14-	=14-	=14-	=14-	=14-	=14-	=14-	=14-	=14-	=14-	=14-	=14-	=14-	=14-	=14-	=14-	=14-	=14-	=14-
1B-X	si-	mun-	2.f\	Si-	mun-	1dd	Si-	mun-	1dd	Si-	mun-	.	.	.	.	.	.	.	.	.	.	.	.
.	.	.	4g\	.	.	.	.	.	.	.	.	.	.	.	.	.	.	.	.	.	.	.	.
=15-	=15-	=15-	=15-	=15-	=15-	=15-	=15-	=15-	=15-	=15-	=15-	=15-	=15-	=15-	=15-	=15-	=15-	=15-	=15-	=15-	=15-	=15-	=15-
2A/	-mul	-da	2a\	-mul	-da	2cc\	-mul	-da	2ee\	-mul	-da	.	.	.	.	.	.	.	.	.	.	.	.
1f\	et	tu-	1a\	et	tu-	1cc\	et	tu-	1ff\	et	tu-	.	.	.	.	.	.	.	.	.	.	.	.
=16-	=16-	=16-	=16-	=16-	=16-	=16-	=16-	=16-	=16-	=16-	=16-	=16-	=16-	=16-	=16-	=16-	=16-	=16-	=16-	=16-	=16-	=16-	=16-
.	.	.	.	.	.	.	.	.	.	.	.	0r	.	.	0r	.	.	0r	.	.	0r	.	.
!	!	!	!LO:SIC:v:t=custos g#	!	!	!	!	!	!	!	!	!	!	!	!	!	!	!	!	!	!	!	!
2d\	hu-	-o	2a\	hu-	-o	2dd\	hu-	-o	2ff\	hu-	-o	.	.	.	.	.	.	.	.	.	.	.	.
=17-	=17-	=17-	=17-	=17-	=17-	=17-	=17-	=17-	=17-	=17-	=17-	=17-	=17-	=17-	=17-	=17-	=17-	=17-	=17-	=17-	=17-	=17-	=17-
!	!	!	!LO:LB:g=original	!	!	!	!	!	!	!	!	!	!	!	!	!	!	!	!	!	!	!	!
!	!	!	!LO:TX:t=P:problem:# below	!	!	!	!	!	!	!	!	!	!	!	!	!	!	!	!	!	!	!	!
2.e\	-ma-	san-	2.g#X\	-ma-	San-	2.b\	-ma-	San-	2.ee\	-ma-	San-	.	.	.	.	.	.	.	.	.	.	.	.
!LO:SIC:v:t=custos A	!	!	!	!	!	!LO:SIC:v:t=custos cc#	!	!	!	!	!	!	!	!	!	!	!	!	!	!	!	!	!
4e\	-ni-	-gui[[ne]]-	4g#\	-ni-	-gui-	4b\	-ni-	-gui-	4ee\	-ni-	-gui-	.	.	.	.	.	.	.	.	.	.	.	.
=18-	=18-	=18-	=18-	=18-	=18-	=18-	=18-	=18-	=18-	=18-	=18-	=18-	=18-	=18-	=18-	=18-	=18-	=18-	=18-	=18-	=18-	=18-	=18-
!	!	!	!	!	!	!LO:LB:g=original	!	!	!	!	!	!	!	!	!	!	!	!	!	!	!	!	!
!LO:LB:g=original	!	!	!	!	!	!LO:TX:t=P:problem:# below	!	!	!LO:SIC:v:t=custos ff	!	!	!	!	!	!	!	!	!	!	!	!	!	!
1A	-tas	-ne	1a	-tas	-ne.	1cc#X	-tas	-ne	1ee	-tas	-ne.	2r	.	.	2r	.	.	2r	.	.	2r	.	.
.	.	.	.	.	.	.	.	.	.	.	.	2c/	Sed	Me	2g\	Sed	Me	2ccny\	Sed	Me	2ee\	Sed	Me
=19-	=19-	=19-	=19-	=19-	=19-	=19-	=19-	=19-	=19-	=19-	=19-	=19-	=19-	=19-	=19-	=19-	=19-	=19-	=19-	=19-	=19-	=19-	=19-
!	!	!	!	!	!	!	!	!	!LO:LB:g=original	!	!	!	!	!	!	!	!	!	!	!	!	!	!
00r	.	.	00r	.	.	00r	.	.	00r	.	.	1d	hic	im-	1f	hic	im-	1a	hic	im-	1ff	hic	im-
=20-	=20-	=20-	=20-	=20-	=20-	=20-	=20-	=20-	=20-	=20-	=20-	=20-	=20-	=20-	=20-	=20-	=20-	=20-	=20-	=20-	=20-	=20-	=20-
.	.	.	.	.	.	.	.	.	.	.	.	2d\	la-	-mun-	2f\	la-	-mun-	4a\	la-	-mun-	2dd\	la-	-mun-
.	.	.	.	.	.	.	.	.	.	.	.	.	.	.	.	.	.	4b\	.	.	.	.	.
!	!	!	!	!	!	!	!	!	!	!	!	!LO:SIC:v:t=custos B-	!	!	!	!	!	!	!	!	!	!	!
.	.	.	.	.	.	.	.	.	.	.	.	2c/	-tet	-dum	2c/	-tet	-dum	2cc\	-tet	-dum	2ee\	-tet	-dum
=21-	=21-	=21-	=21-	=21-	=21-	=21-	=21-	=21-	=21-	=21-	=21-	=21-	=21-	=21-	=21-	=21-	=21-	=21-	=21-	=21-	=21-	=21-	=21-
!	!	!	!	!	!	!	!	!	!	!	!	!LO:LB:g=original	!	!	!	!	!	!	!	!	!	!	!
.	.	.	.	.	.	.	.	.	.	.	.	1B-X	si-	mun-	2.f\	Si-	mun-	1dd	Si-	mun-	1ff	Si-	m(un)-
.	.	.	.	.	.	.	.	.	.	.	.	.	.	.	4g\	.	.	.	.	.	.	.	.
=22-	=22-	=22-	=22-	=22-	=22-	=22-	=22-	=22-	=22-	=22-	=22-	=22-	=22-	=22-	=22-	=22-	=22-	=22-	=22-	=22-	=22-	=22-	=22-
!	!	!	!	!	!	!	!	!	!	!	!	!	!	!	!LO:SIC:v:t=custos e	!	!	!LO:SIC:v:t=custos cc	!	!	!LO:SIC:v:t=custos gg	!	!
.	.	.	.	.	.	.	.	.	.	.	.	2A/	-mul	-da	2a\	-mul	-da	2cc\	-mul	-da.	2ee\	-mul	-da
!	!	!	!	!	!	!	!	!	!	!	!	!	!	!	!LO:LB:g=original	!	!	!LO:LB:g=original	!	!	!LO:LB:g=original	!	!
.	.	.	.	.	.	.	.	.	.	.	.	1c\	et	[tu]-	1e\	et	tu-	2.cc\	et	tu-	1gg\	et	tu-
=23-	=23-	=23-	=23-	=23-	=23-	=23-	=23-	=23-	=23-	=23-	=23-	=23-	=23-	=23-	=23-	=23-	=23-	=23-	=23-	=23-	=23-	=23-	=23-
0r	.	.	0r	.	.	0r	.	.	0r	.	.	.	.	.	.	.	.	.	.	.	.	.	.
.	.	.	.	.	.	.	.	.	.	.	.	.	.	.	.	.	.	4b\	.	.	.	.	.
.	.	.	.	.	.	.	.	.	.	.	.	2d\	hu-	-o	4f\	hu-	-o	4a\	.	-o	2ff\	hu-	-o
.	.	.	.	.	.	.	.	.	.	.	.	.	.	.	4g\	.	.	2dd\	hu-	.	.	.	.
=24-	=24-	=24-	=24-	=24-	=24-	=24-	=24-	=24-	=24-	=24-	=24-	=24-	=24-	=24-	=24-	=24-	=24-	=24-	=24-	=24-	=24-	=24-	=24-
.	.	.	.	.	.	.	.	.	.	.	.	2.A/	-ma-	San-	2.a\	-ma-	San-	.	.	.	2.ee\	-ma-	San-
!	!	!	!	!	!	!	!	!	!	!	!	!	!	!	!	!	!	!LO:SIC:v:s=8cc#\	!	!	!	!	!
.	.	.	.	.	.	.	.	.	.	.	.	.	.	.	.	.	.	8cc\L	-ma-	San-	.	.	.
.	.	.	.	.	.	.	.	.	.	.	.	.	.	.	.	.	.	8b\J	.	.	.	.	.
!	!	!	!	!	!	!	!	!	!	!	!	!	!	!	!	!	!	!LO:TX:t=P:problem:# below	!	!	!	!	!
.	.	.	.	.	.	.	.	.	.	.	.	.	.	.	.	.	.	2cc#X\	-ni-	-gui-	.	.	.
.	.	.	.	.	.	.	.	.	.	.	.	4A/	-ni-	-gui-	4a\	-ni-	-[g]ui-	.	.	.	4ee\	-ni-	-gui-
=25-	=25-	=25-	=25-	=25-	=25-	=25-	=25-	=25-	=25-	=25-	=25-	=25-	=25-	=25-	=25-	=25-	=25-	=25-	=25-	=25-	=25-	=25-	=25-
2r	.	.	2r	.	.	2r	.	.	2r	.	.	1d	-tas	-ne	1a	-tas	-ne	1dd	-tas	-ne	1dd	-tas	-ne
1d\	et	tu-	1a\	et	tu-	1dd\	et	tu-	1ff\	et	tu-	.	.	.	.	.	.	.	.	.	.	.	.
=26-	=26-	=26-	=26-	=26-	=26-	=26-	=26-	=26-	=26-	=26-	=26-	=26-	=26-	=26-	=26-	=26-	=26-	=26-	=26-	=26-	=26-	=26-	=26-
.	.	.	.	.	.	.	.	.	.	.	.	0r	.	.	0r	.	.	0r	.	.	0r	.	.
2d\	hu-	-o	2a\	hu-	-o	2dd\	hu-	-o	2ff\	hu-	-o	.	.	.	.	.	.	.	.	.	.	.	.
=27-	=27-	=27-	=27-	=27-	=27-	=27-	=27-	=27-	=27-	=27-	=27-	=27-	=27-	=27-	=27-	=27-	=27-	=27-	=27-	=27-	=27-	=27-	=27-
!	!	!	!	!	!	!LO:TX:t=P:problem:# below	!	!	!	!	!	!	!	!	!	!	!	!	!	!	!	!	!
2.A/	-ma-	San-	2.a\	-ma-	San-	2.cc#X\	-ma-	San-	2.ee\	-ma-	San-	.	.	.	.	.	.	.	.	.	.	.	.
4A/	-ni-	-gui-	4a\	-ni-	-gui-	4cc#\	-ni-	-gui-	4ee\	-ni-	-gui-	.	.	.	.	.	.	.	.	.	.	.	.
=28-	=28-	=28-	=28-	=28-	=28-	=28-	=28-	=28-	=28-	=28-	=28-	=28-	=28-	=28-	=28-	=28-	=28-	=28-	=28-	=28-	=28-	=28-	=28-
2d\	-tas	-ne	2a\	-tas	-ne.	2dd\	-tas	-ne	2dd\	-tas	-ne.	2r	.	.	2r	.	.	2r	.	.	2r	.	.
2r	.	.	2r	.	.	2r	.	.	2r	.	.	1f\	Am-	Cu-	1a\	Am-	Cu-	1ccny\	Am-	Cu-	1ff\	Am-	Cu-
=29-	=29-	=29-	=29-	=29-	=29-	=29-	=29-	=29-	=29-	=29-	=29-	=29-	=29-	=29-	=29-	=29-	=29-	=29-	=29-	=29-	=29-	=29-	=29-
00r	.	.	00r	.	.	00r	.	.	00r	.	.	.	.	.	.	.	.	.	.	.	.	.	.
.	.	.	.	.	.	.	.	.	.	.	.	2c/	-bo	-ius	2g\	-bo	-ius	2cc\	-bo	-ius	2ee\	-bo	-ius
=30-	=30-	=30-	=30-	=30-	=30-	=30-	=30-	=30-	=30-	=30-	=30-	=30-	=30-	=30-	=30-	=30-	=30-	=30-	=30-	=30-	=30-	=30-	=30-
!	!	!	!	!	!	!	!	!	!	!	!	!	!	!	!	!	!	!LO:TX:t=P:problem:tamen credens poprawione na tamen	!	!	!	!	!
!	!	!	!	!	!	!	!	!	!	!	!	!	!	!	!	!	!	!LO:TX:t=P:problem: Vna stilla poprawione na Vna	!	!	!	!	!
.	.	.	.	.	.	.	.	.	.	.	.	2d\	ta-	V-	2f\	ta-	V-	4a\	ta-	V-	2dd\	ta-	V-
.	.	.	.	.	.	.	.	.	.	.	.	.	.	.	.	.	.	4b\	.	.	.	.	.
.	.	.	.	.	.	.	.	.	.	.	.	2A/	-men	-na	2e/	-men	-na	2cc\	.	.	2cc\	-men	-na
=31-	=31-	=31-	=31-	=31-	=31-	=31-	=31-	=31-	=31-	=31-	=31-	=31-	=31-	=31-	=31-	=31-	=31-	=31-	=31-	=31-	=31-	=31-	=31-
.	.	.	.	.	.	.	.	.	.	.	.	2.B-X/	cre-	stil-	1d	cre-	stil-	1.b-X	-men	-na	4dd\	cre-	stil-
.	.	.	.	.	.	.	.	.	.	.	.	.	.	.	.	.	.	.	.	.	4ee\	.	.
.	.	.	.	.	.	.	.	.	.	.	.	.	.	.	.	.	.	.	.	.	2.ff\	.	.
.	.	.	.	.	.	.	.	.	.	.	.	4A/	.	-la	.	.	.	.	.	.	.	.	.
=32-	=32-	=32-	=32-	=32-	=32-	=32-	=32-	=32-	=32-	=32-	=32-	=32-	=32-	=32-	=32-	=32-	=32-	=32-	=32-	=32-	=32-	=32-	=32-
.	.	.	.	.	.	.	.	.	.	.	.	1G	.	.	1g,<	-dens	-la	.	.	.	.	.	.
.	.	.	.	.	.	.	.	.	.	.	.	.	.	.	.	.	.	.	.	.	8ee\L	.	.
.	.	.	.	.	.	.	.	.	.	.	.	.	.	.	.	.	.	.	.	.	8dd\J	.	.
.	.	.	.	.	.	.	.	.	.	.	.	.	.	.	.	.	.	2b-yX\	cre-	stil-	2ee\	.	.
=33-	=33-	=33-	=33-	=33-	=33-	=33-	=33-	=33-	=33-	=33-	=33-	=33-	=33-	=33-	=33-	=33-	=33-	=33-	=33-	=33-	=33-	=33-	=33-
0r	.	.	0r	.	.	0r	.	.	0r	.	.	2F/	-dens	.	2a\	at-	Sal-	2a,<\	-dens	-la	2ff,<\	-dens	-la
.	.	.	.	.	.	.	.	.	.	.	.	1c\	at-	Sal-	1g\	-q(ue)	-uum	1cc\	at-	Sal-	1ee\	at-	sal-
=34-	=34-	=34-	=34-	=34-	=34-	=34-	=34-	=34-	=34-	=34-	=34-	=34-	=34-	=34-	=34-	=34-	=34-	=34-	=34-	=34-	=34-	=34-	=34-
.	.	.	.	.	.	.	.	.	.	.	.	.	.	.	.	.	.	.	.	.	.	.	.
.	.	.	.	.	.	.	.	.	.	.	.	2d\	-q(ue)	-uum	2f\	.	.	4a\	-q(ue)	-uum	2ff\	-que	-uum
.	.	.	.	.	.	.	.	.	.	.	.	.	.	.	.	.	.	4bny\	.	.	.	.	.
=35-	=35-	=35-	=35-	=35-	=35-	=35-	=35-	=35-	=35-	=35-	=35-	=35-	=35-	=35-	=35-	=35-	=35-	=35-	=35-	=35-	=35-	=35-	=35-
!	!	!	!	!	!	!	!	!	!	!	!	!LO:SIC:v:t=custos G	!	!	!	!	!	!	!	!	!	!	!
1r	.	.	1r	.	.	1r	.	.	1r	.	.	2c/	con-	fa-	2g\	con-	fa-	2cc\	con-	fa-	2ee\	con-	fa-
!	!	!	!	!	!	!	!	!	!	!	!	!LO:PB:g=original	!	!	!	!	!	!	!	!	!	!	!
.	.	.	.	.	.	.	.	.	.	.	.	2G/	-f[i]-	-ce-	2g\	-fi-	-ce-	2b\	-fi-	-ce-	2dd\	-fi-	-ce-
=36-	=36-	=36-	=36-	=36-	=36-	=36-	=36-	=36-	=36-	=36-	=36-	=36-	=36-	=36-	=36-	=36-	=36-	=36-	=36-	=36-	=36-	=36-	=36-
!	!	!	!	!	!	!	!	!	!	!	!	!	!	!	!	!	!	!LO:TX:t=P:problem:custos dd zamiast cc	!	!	!	!	!
!	!	!	!	!	!	!	!	!	!	!	!	!	!	!	!	!	!	!LO:SIC:v:t=custos dd	!	!	!	!	!
2r	.	.	2r	.	.	2r	.	.	2r	.	.	1c	-tens	-re.	1g	-tens	-re	1cc	-tens	-re	1ee	-tens	-re
1c\	at-	Sal-	1gny\	at-	Sal-	1ccny\	at-	Sal-	1ee\	at-	Sal-	.	.	.	.	.	.	.	.	.	.	.	.
=37-	=37-	=37-	=37-	=37-	=37-	=37-	=37-	=37-	=37-	=37-	=37-	=37-	=37-	=37-	=37-	=37-	=37-	=37-	=37-	=37-	=37-	=37-	=37-
!	!	!	!	!	!	!	!	!	!	!	!	!	!	!	!	!	!	!LO:LB:g=original	!	!	!	!	!
.	.	.	.	.	.	.	.	.	.	.	.	0r	.	.	0r	.	.	0r	.	.	0r	.	.
2d\	-q(ue)	-uum	2f\	-q(ue)	-uum	4a\	-q(ue)	-uum	2ff\	-q(ue)	-uum	.	.	.	.	.	.	.	.	.	.	.	.
.	.	.	.	.	.	4b\	.	.	.	.	.	.	.	.	.	.	.	.	.	.	.	.	.
=38-	=38-	=38-	=38-	=38-	=38-	=38-	=38-	=38-	=38-	=38-	=38-	=38-	=38-	=38-	=38-	=38-	=38-	=38-	=38-	=38-	=38-	=38-	=38-
2.c/	[c]on-	fa-	2.g\	con-	fa-	2.cc\	con-	fa-	2ff\	con-	fa-	.	.	.	.	.	.	.	.	.	.	.	.
.	.	.	.	.	.	.	.	.	2ee\	-fi-	-ce-	.	.	.	.	.	.	.	.	.	.	.	.
4c/	-fi-	-ce-	4g\	-fi-	-ce-	4cc\	-fi-	-ce-	.	.	.	.	.	.	.	.	.	.	.	.	.	.	.
=39-	=39-	=39-	=39-	=39-	=39-	=39-	=39-	=39-	=39-	=39-	=39-	=39-	=39-	=39-	=39-	=39-	=39-	=39-	=39-	=39-	=39-	=39-	=39-
1F	-tens	-re.	1a	-tens	-re.	1cc	-tens	-re.	1ff	-tens	-re	2r	.	.	2r	.	.	2r	.	.	2r	.	.
!	!	!	!	!	!	!	!	!	!	!	!	!	!	!	!LO:SIC:v:t=custos f	!	!	!	!	!	!	!	!
.	.	.	.	.	.	.	.	.	.	.	.	2f\	Pe-	To-	2a\	Pe-	To-	2cc\	Pe-	To-	2ff\	Pe-	To-
=40-	=40-	=40-	=40-	=40-	=40-	=40-	=40-	=40-	=40-	=40-	=40-	=40-	=40-	=40-	=40-	=40-	=40-	=40-	=40-	=40-	=40-	=40-	=40-
!	!	!	!	!	!	!	!	!	!	!	!	!	!	!	!LO:PB:g=original	!	!	!	!	!	!LO:SIC:v:t=custos ee	!	!
00r	.	.	00r	.	.	00r	.	.	00r	.	.	1d	-to	-tum	1f	-to	-tum	2.a\	-to	-tum	1ff	-to.	-tum
.	.	.	.	.	.	.	.	.	.	.	.	.	.	.	.	.	.	4b\	.	.	.	.	.
=41-	=41-	=41-	=41-	=41-	=41-	=41-	=41-	=41-	=41-	=41-	=41-	=41-	=41-	=41-	=41-	=41-	=41-	=41-	=41-	=41-	=41-	=41-	=41-
!	!	!	!	!	!	!	!	!	!	!	!	!	!	!	!	!	!	!	!	!	!LO:LB:g=original	!	!
.	.	.	.	.	.	.	.	.	.	.	.	2c/	quod	mun-	2g\	quod	mun-	2cc\	quod	mun-	2ee\	quod	mun-
.	.	.	.	.	.	.	.	.	.	.	.	2A/	pe-	-dum	2a\	pet-	-dum	2cc\	pe-	-dum	2ff\	pe-	.
=42-	=42-	=42-	=42-	=42-	=42-	=42-	=42-	=42-	=42-	=42-	=42-	=42-	=42-	=42-	=42-	=42-	=42-	=42-	=42-	=42-	=42-	=42-	=42-
.	.	.	.	.	.	.	.	.	.	.	.	1G	-ti-	po-	2d/	.	po-	1b-X	-ti-	po-	2dd\	-ti-	-dum
.	.	.	.	.	.	.	.	.	.	.	.	.	.	.	2g\	-i-	.	.	.	.	2ee\	.	po-
=43-	=43-	=43-	=43-	=43-	=43-	=43-	=43-	=43-	=43-	=43-	=43-	=43-	=43-	=43-	=43-	=43-	=43-	=43-	=43-	=43-	=43-	=43-	=43-
.	.	.	.	.	.	.	.	.	.	.	.	2F/	-uit	-test	2a\	-uit	-test	2a\	-uit	-test	2ff\	-v[i]t	-test
.	.	.	.	.	.	.	.	.	.	.	.	1c\	la-	om-	2g\	la-	.	2.cc\	la-	om-	1gg\	la-	o-
=44-	=44-	=44-	=44-	=44-	=44-	=44-	=44-	=44-	=44-	=44-	=44-	=44-	=44-	=44-	=44-	=44-	=44-	=44-	=44-	=44-	=44-	=44-	=44-
0r	.	.	0r	.	.	0r	.	.	0r	.	.	.	.	.	2c/	-tro	om-	.	.	.	.	.	.
.	.	.	.	.	.	.	.	.	.	.	.	.	.	.	.	.	.	4a\	.	-ni	.	.	.
.	.	.	.	.	.	.	.	.	.	.	.	2d\	-tro	-ni	4f\	.	-ni	2.dd\	-tro	ſce-	2ff\	-tro	-mni
.	.	.	.	.	.	.	.	.	.	.	.	.	.	.	4g\	.	.	.	.	.	.	.	.
=45-	=45-	=45-	=45-	=45-	=45-	=45-	=45-	=45-	=45-	=45-	=45-	=45-	=45-	=45-	=45-	=45-	=45-	=45-	=45-	=45-	=45-	=45-	=45-
.	.	.	.	.	.	.	.	.	.	.	.	2.A/	poe-	ſce-	2.a\	poe-	ſce-	.	.	.	2.ee\	poe-	ſce-
.	.	.	.	.	.	.	.	.	.	.	.	.	.	.	.	.	.	8cc\L	pe-	.	.	.	.
.	.	.	.	.	.	.	.	.	.	.	.	.	.	.	.	.	.	8bny\J	.	.	.	.	.
.	.	.	.	.	.	.	.	.	.	.	.	.	.	.	.	.	.	2cc\	-ni-	-le-	.	.	.
.	.	.	.	.	.	.	.	.	.	.	.	4A/	-ni-	-le-	4a\	-ni-	-le-	.	.	.	4ee\	-ni-	-le-
=46-	=46-	=46-	=46-	=46-	=46-	=46-	=46-	=46-	=46-	=46-	=46-	=46-	=46-	=46-	=46-	=46-	=46-	=46-	=46-	=46-	=46-	=46-	=46-
2r	.	.	2r	.	.	2r	.	.	2r	.	.	2d\	-tens	-re	2a\	-tens	-re.	2dd\	-tens	-re	2dd\	-tens.	-re.
2A/	Pe-	To-	1a\	Pe-	To-	2cc\	Pe-	To-	2ee\	Pe-	To-	2r	.	.	2r	.	.	2r	.	.	2r	.	.
=47-	=47-	=47-	=47-	=47-	=47-	=47-	=47-	=47-	=47-	=47-	=47-	=47-	=47-	=47-	=47-	=47-	=47-	=47-	=47-	=47-	=47-	=47-	=47-
1d	-to	-tum	.	.	.	2.a\	-to	-tum	1ff	-to	-tum	00r	.	.	00r	.	.	00r	.	.	00r	.	.
.	.	.	2f\	-to	-tum	.	.	.	.	.	.	.	.	.	.	.	.	.	.	.	.	.	.
.	.	.	.	.	.	4b\	.	.	.	.	.	.	.	.	.	.	.	.	.	.	.	.	.
=48-	=48-	=48-	=48-	=48-	=48-	=48-	=48-	=48-	=48-	=48-	=48-	=48-	=48-	=48-	=48-	=48-	=48-	=48-	=48-	=48-	=48-	=48-	=48-
!	!	!	!LO:SIC:v:t=custos a	!	!	!	!	!	!	!	!	!	!	!	!	!	!	!	!	!	!	!	!
2c/	quod	mun-	2g\	quod	mun-	2cc\	quod	mun-	2ee\	quod	mun-	.	.	.	.	.	.	.	.	.	.	.	.
!LO:SIC:v:t=custos B-	!	!	!LO:LB:g=original	!	!	!LO:SIC:v:t=custos b-	!	!	!	!	!	!	!	!	!	!	!	!	!	!	!	!	!
2A/	pe-	-dum	2a\	pe-	-dum	2cc\	pe-	-dum	2cc\	pe-	-dum	.	.	.	.	.	.	.	.	.	.	.	.
=49-	=49-	=49-	=49-	=49-	=49-	=49-	=49-	=49-	=49-	=49-	=49-	=49-	=49-	=49-	=49-	=49-	=49-	=49-	=49-	=49-	=49-	=49-	=49-
!LO:LB:g=original	!	!	!	!	!	!LO:LB:g=original	!	!	!LO:SIC:v:t=custos ee	!	!	!	!	!	!	!	!	!	!	!	!	!	!
2B-X/	-ti-	po-	2f\	-ti-	po-	1b-X	-ti-	po-	2dd\	-ti-	po-	.	.	.	.	.	.	.	.	.	.	.	.
!	!	!	!	!	!	!	!	!	!LO:LB:g=original	!	!	!	!	!	!	!	!	!	!	!	!	!	!
2G/	.	.	2g\	.	-teſt	.	.	.	2ee\	.	-teſt	.	.	.	.	.	.	.	.	.	.	.	.
=50-	=50-	=50-	=50-	=50-	=50-	=50-	=50-	=50-	=50-	=50-	=50-	=50-	=50-	=50-	=50-	=50-	=50-	=50-	=50-	=50-	=50-	=50-	=50-
2F/	-uit	-test	2a,<\	-uit	.	2a\	-uit	-teſt	2ff\	-uit	o-	.	.	.	.	.	.	.	.	.	.	.	.
1c\	la-	o-	1g\	la-	o-	1cc\	la-	o-	1ee\	la-	-mni	.	.	.	.	.	.	.	.	.	.	.	.
=51-	=51-	=51-	=51-	=51-	=51-	=51-	=51-	=51-	=51-	=51-	=51-	=51-	=51-	=51-	=51-	=51-	=51-	=51-	=51-	=51-	=51-	=51-	=51-
.	.	.	.	.	.	.	.	.	.	.	.	0r	.	.	0r	.	.	0r	.	.	0r	.	.
2d\	-tro	-mni	2f\	-tro	-mni	4a\	-tro	-mni	2dd\	-tro	ſce-	.	.	.	.	.	.	.	.	.	.	.	.
.	.	.	.	.	.	4bny\	.	.	.	.	.	.	.	.	.	.	.	.	.	.	.	.	.
=52-	=52-	=52-	=52-	=52-	=52-	=52-	=52-	=52-	=52-	=52-	=52-	=52-	=52-	=52-	=52-	=52-	=52-	=52-	=52-	=52-	=52-	=52-	=52-
2.c/	poe-	ſce-	2.g\	poe-	ſce-	2.cc\	poe-	ſce-	2.ee\	poe-	-le-	.	.	.	.	.	.	.	.	.	.	.	.
4c/	-ni-	-le-	4g\	-ni-	-le-	4cc\	-ni-	-le-	4ee\	-ni-	-re	.	.	.	.	.	.	.	.	.	.	.	.
=53-	=53-	=53-	=53-	=53-	=53-	=53-	=53-	=53-	=53-	=53-	=53-	=53-	=53-	=53-	=53-	=53-	=53-	=53-	=53-	=53-	=53-	=53-	=53-
2F/	-tens	-re.	2a\	-tens	-re	2cc\	-tens	-re.	2ff,<\	-tens	.	2r	.	.	2r	.	.	2r	.	.	2r	.	.
1d\	la-	o-	1d/	la-	o-	1a\	la-	o-	2dd\	.	.	1d\	la-	om-	1f\	la-	om-	1dd\	la-	om-	2.dd\	la-	O-
=54-	=54-	=54-	=54-	=54-	=54-	=54-	=54-	=54-	=54-	=54-	=54-	=54-	=54-	=54-	=54-	=54-	=54-	=54-	=54-	=54-	=54-	=54-	=54-
.	.	.	.	.	.	.	.	.	2a/	la-	o-	.	.	.	.	.	.	.	.	.	.	.	.
.	.	.	.	.	.	.	.	.	.	.	.	.	.	.	.	.	.	.	.	.	4ee\	.	.
2d\	-tro	-mni	2a\	-tro	-mni	2a\	-tro	-mni	1dd\	-tro	-mni	2d\	-tro	-ni	4f\	-tro	-ni	2a\	-tro	-ni	4ff\	.	-mni
.	.	.	.	.	.	.	.	.	.	.	.	.	.	.	4g\	.	.	.	.	.	4dd\	.	.
=55-	=55-	=55-	=55-	=55-	=55-	=55-	=55-	=55-	=55-	=55-	=55-	=55-	=55-	=55-	=55-	=55-	=55-	=55-	=55-	=55-	=55-	=55-	=55-
1.A	poe-	ſce-	1.a	poe-	ſce-	1.a	poe-	ſce-	.	.	.	1.a	poe-	ſce-	1.a	poe-	ſce-	1.a	poe-	ſce-	2ee\	.	.
!	!	!	!	!	!	!	!	!	!LO:SIC:v:s=4cc#\	!	!	!	!	!	!	!	!	!	!	!	!	!	!
.	.	.	.	.	.	.	.	.	4cc\	poe-	ſce-	.	.	.	.	.	.	.	.	.	2ff\	-tro	.
.	.	.	.	.	.	.	.	.	4b/	.	.	.	.	.	.	.	.	.	.	.	.	.	.
=56-	=56-	=56-	=56-	=56-	=56-	=56-	=56-	=56-	=56-	=56-	=56-	=56-	=56-	=56-	=56-	=56-	=56-	=56-	=56-	=56-	=56-	=56-	=56-
!	!	!	!	!	!	!	!	!	!LO:TX:t=P:problem:# below	!	!	!	!	!	!	!	!	!	!	!	!	!	!
.	.	.	.	.	.	.	.	.	2.cc#X\	.	.	.	.	.	.	.	.	.	.	.	2.ee\	poe-	ſce-
!LO:TX:t=P:problem:dwukreska pseudotaktowa przerywana	!	!	!LO:TX:t=P:problem:dwukreska pseudotaktowa przerywana	!	!	!LO:TX:t=P:problem:dwukreska pseudotaktowa przerywana	!	!	!	!	!	!LO:TX:t=P:problem:dwukreska pseudotaktowa przerywana	!	!	!LO:TX:t=P:problem:dwukreska pseudotaktowa przerywana	!	!	!LO:TX:t=P:problem:dwukreska pseudotaktowa przerywana	!	!	!	!	!
2A/	-ni-	-le-	2a\	-ni-	-le-	2a\	-ni-	-le-	.	.	.	2a\	-ni-	-le-	2a\	-ni-	-le-	2a\	-ni-	-le-	.	.	.
!	!	!	!	!	!	!	!	!	!LO:TX:t=P:problem:dwukreska pseudotaktowa przerywana	!	!	!	!	!	!	!	!	!	!	!	!LO:TX:t=P:problem:dwukreska pseudotaktowa przerywana	!	!
.	.	.	.	.	.	.	.	.	4cc#\	-ni-	-le-	.	.	.	.	.	.	.	.	.	4ee\	-ni-	-le-
=57-	=57-	=57-	=57-	=57-	=57-	=57-	=57-	=57-	=57-	=57-	=57-	=57-	=57-	=57-	=57-	=57-	=57-	=57-	=57-	=57-	=57-	=57-	=57-
!	!	!	!LO:TX:t=Quarta\nPars	!	!	!	!	!	!LO:TX:t=Quarta\nPars.	!	!	!	!	!	!	!	!	!	!	!	!	!	!
00d;;	-tens	-re.	00a;;	-tens	-re.	00a;;	-tens-	-re-	00dd;;	-tens	-re.	00d;;	-tens	-re.	00a;;	-tens	-re.	00a;;	-tens	-re.	00dd;;	-tens.	-re.
=58-	=58-	=58-	=58-	=58-	=58-	=58-	=58-	=58-	=58-	=58-	=58-	=58-	=58-	=58-	=58-	=58-	=58-	=58-	=58-	=58-	=58-	=58-	=58-
.	.	.	.	.	.	.	.	.	.	.	.	.	.	.	.	.	.	.	.	.	.	.	.
=59-	=59-	=59-	=59-	=59-	=59-	=59-	=59-	=59-	=59-	=59-	=59-	=59-	=59-	=59-	=59-	=59-	=59-	=59-	=59-	=59-	=59-	=59-	=59-
.	.	.	.	.	.	.	.	.	.	.	.	.	.	.	.	.	.	.	.	.	.	.	.
=60-	=60-	=60-	=60-	=60-	=60-	=60-	=60-	=60-	=60-	=60-	=60-	=60-	=60-	=60-	=60-	=60-	=60-	=60-	=60-	=60-	=60-	=60-	=60-
.	.	.	.	.	.	.	.	.	.	.	.	.	.	.	.	.	.	.	.	.	.	.	.
==	==	==	==	==	==	==	==	==	==	==	==	==	==	==	==	==	==	==	==	==	==	==	==
*-	*-	*-	*-	*-	*-	*-	*-	*-	*-	*-	*-	*-	*-	*-	*-	*-	*-	*-	*-	*-	*-	*-	*-
!!!system-decoration: [(s1,s2,s3,s4)][(s5,s6,s7,s8)]
!!!RDF**kern: > = above
!!!RDF**kern: < = below
!!!ENC:Katarzyna Serwa
!!!END:2021-10-19
!!!ENC:Anastazja Marusiak
!!!END:2021-10-07
